!!!!SEGMENT: pl-kk--kk-i-321_casali-giovanni-battista--adjuva-nos-deus.krn
!!!cenid: 17xx:2122
!!!COM: Casali, Giovanni Battista
!!!COM-rismid: pe30000607
!!!CDT: 1715-1792/07/06
!!!CNT: Italian
!!!OTL: Adjuva nos Deus
!!!PDT:
!!!AGN: Sacred
!!!SMS-siglum: PL-Kk
!!!SMS-shelfmark: Kk.I.321
!!!SMS-shelfwork: W
!!!SMS-variant:
!!!SMS-altvar:
!!!NIFC-rismid: 1001146001
!!!system-decoration: [(s1,s2,s3,s4)][(s5)]
!!!key:
**kern	**fba	**kern	**text	**dynam	**kern	**text	**dynam	**kern	**text	**kern	**text
*part5	*part5	*part4	*part4	*part4	*part3	*part3	*part3	*part2	*part2	*part1	*part1
*staff5	*staff5	*staff4	*staff4	*	*staff3	*staff3	*	*staff2	*staff2	*staff1	*staff1
*Iorgan	*	*Iempty	*	*	*Itenor	*	*	*Ialto	*	*Ivox	*
*I"Organo.	*	*I"Baſso	*	*	*I"Tenore	*	*	*I"Alto	*	*I"Canto	*
*I'Org.	*	*I'B.	*	*	*I'T.	*	*	*I'A.	*	*I'C.	*
*clefF4	*	*clefF4	*	*	*clefC4	*	*	*clefC3	*	*clefC1	*
*k[b-e-]	*	*k[b-e-]	*	*	*k[b-e-]	*	*	*k[b-e-]	*	*k[b-e-]	*
*g:	*	*g:	*	*	*g:	*	*	*g:	*	*g:	*
*M4/4	*	*M4/4	*	*	*M4/4	*	*	*M4/4	*	*M4/4	*
*met(c)	*	*met(c)	*	*	*met(c)	*	*	*met(c)	*	*met(c)	*
=1	=1	=1	=1	=1	=1	=1	=1	=1	=1	=1	=1
*2\right	*	*2\right	*	*	*2\right	*	*	*2\right	*	*2\right	*
!LO:TX:a:t=P:problem=w źródle znak przykluczowy b- zapisany w wyższej oktawie	!	!	!	!	!	!	!	!	!	!	!
!	!	!	!	!	!	!	!	!LO:TX:a:t=P:problem='Larghetto' znajduje się przed kluczem i metrum na pięciolinii	!	!LO:TX:a:t=P:problem='Larghetto' znajduje się przed kluczem i metrum na pięciolinii	!
!LO:TX:a:t=P:problem='Larghetto' znajduje się przed kluczem i metrum na pięciolinii	!	!LO:TX:a:t=P:problem='Larghetto' znajduje się przed kluczem i metrum na pięciolinii	!	!	!LO:TX:a:t=P:problem='Larghetto' znajduje się przed kluczem i metrum na pięciolinii	!	!	!	!	!	!
!LO:TX:a:Bi:t=Del Sig. Gia&colon;  Batta Casali Romano	!	!	!	!	!	!	!	!	!	!	!
!LO:TX:a:Bi:t=Larghetto	!	!LO:TX:a:Bi:t=Larghetto	!	!	!LO:TX:a:Bi:t=Larghetto	!	!	!LO:TX:a:Bi:t=Larghetto	!	!LO:TX:a:Bi:t=Larghetto	!
!LO:TX:b:Bi:t=Adjuva nos	!	!	!	!	!	!	!	!	!	!	!
8.G\	.	8.G\	Ad-	.	8.d\	Ad-	.	8.g\	Ad-	8.b-\	Ad-
!	!	!	!	!	!	!	!	!	!	!LO:SIC:v:l:s=-ju-	!
16G\	.	16G\	-ju-	.	16d\	-ju-	.	16g\	-ju-	16b-\	-iju-
4D\	#3	4D\	-va	.	4d\	-va	.	4f#X\	-va	4a\	-va
2G\	.	2r	.	.	2r	.	.	2r	.	8.g\	ad-
.	.	.	.	.	.	.	.	.	.	16a\	-ju-
.	.	.	.	.	.	.	.	.	.	8.b-\	-va
.	.	.	.	.	.	.	.	.	.	16dd\	nos
=2	=2	=2	=2	=2	=2	=2	=2	=2	=2	=2	=2
2D\	#3	1r	.	.	2r	.	.	8.d\	ad-	4dd\	De-
.	.	.	.	.	.	.	.	16en\	-ju-	.	.
.	.	.	.	.	.	.	.	8.f#X\	-va	4dd\	-us
.	.	.	.	.	.	.	.	16d\	nos	.	.
!	!	!	!	!	!	!	!	!	!	!LO:LB:g=original	!
2G\	.	.	.	.	8.G\	ad-	.	4g\	De-	8.b-\	sa-
.	.	.	.	.	16A\	-ju-	.	.	.	16cc\	-lu-
.	.	.	.	.	8.B-\	-va	.	4g\	-us	8.dd\	-ta-
.	.	.	.	.	16c\	nos	.	.	.	16ee-\	-ris
!	!	!	!	!	!LO:LB:g=original	!	!	!LO:LB:g=original	!	!	!
=3	=3	=3	=3	=3	=3	=3	=3	=3	=3	=3	=3
8.D\L	.	8.D\	ad-	.	4d\	De-	.	8.f#X\	Sa-	4dd\	nos-
16En\K	.	16En\	-ju-	.	.	.	.	16g\	-lu-	.	.
8.F#X\	.	8.F#X\	-va	.	4d\	-us,	.	8.a\	-ta-	4dd\	-ter
16D\Jk	.	16D\	nos	.	.	.	.	16f#X\	-ris	.	.
!	!	!LO:LB:g=original	!	!	!	!	!	!	!	!	!
4G\	.	4G\	De-	.	8.B-\	Sal-	.	4g\	No-	2r	.
.	.	.	.	.	16c\	-va-	.	.	.	.	.
4D\	#3	4D\	-us	.	8.d\	-to-	.	4f#X\	-ster	.	.
.	.	.	.	.	16c\	-ris	.	.	.	.	.
=4	=4	=4	=4	=4	=4	=4	=4	=4	=4	=4	=4
2G\	.	8.G\	Sa-	.	8.B-\L	nos-	.	4r	.	2r	.
.	.	16A\	-lu-	.	16c\Jk	.	.	.	.	.	.
.	.	8.B-\	-ta-	.	4d\	-ter	.	8.g\	Sa-	.	.
.	.	16G\	-ris	.	.	.	.	16a\	-lu-	.	.
2E-\	5	2E-X\	no-	.	8.G/	Sa-	.	8.b-\	-ta-	8.g\	Sa-
.	6	.	.	.	16G/	-lu-	.	16a\	-ris	16a\	-lu-
!	!	!	!	!	!	!	!	!LO:TX:a:t=P:problem=w źródle dwie ligatury	!	!	!
.	.	.	.	.	8.G/	-ta-	.	[>4g\	no-	8.b-\	-ta-
.	.	.	.	.	16G/	-ris	.	.	.	16cc\	-ris
!LO:LB:g=original	!	!	!	!	!LO:LB:g=original	!	!	!LO:LB:g=original	!	!LO:LB:g=original	!
=5	=5	=5	=5	=5	=5	=5	=5	=5	=5	=5	=5
2D\	4 x	2D\	-ster	.	4A/	nos-	.	4g\]	.	4dd\	nos-
.	#3 x	.	.	.	4A/	-ter	.	4f#X\	-ster	4d/	-ter
8.D\L	5 x	2r	.	.	2r	.	.	2r	.	2r	.
16E-\K	6 n3	.	.	.	.	.	.	.	.	.	.
8.D\	.	.	.	.	.	.	.	.	.	.	.
16C\Jk	6 x	.	.	.	.	.	.	.	.	.	.
=6	=6	=6	=6	=6	=6	=6	=6	=6	=6	=6	=6
4BB-/	.	8.B-\	ad-	.	8.d\	ad	.	8.fn\	ad-	8.b-\	ad-
.	.	16B-\	-ju-	.	16d\	ju-	.	16f\	-ju-	16b-\	-ju-
4F\	.	4F\	-va	.	4c\	-va	.	4f\	-va	4a\	-va
2B-\	.	2r	.	.	2r	.	.	2r	.	8.b-\	ad-
.	.	.	.	.	.	.	.	.	.	16cc\	-ju-
.	.	.	.	.	.	.	.	.	.	8.dd\	-va
.	.	.	.	.	.	.	.	.	.	16ee-\	nos
!	!	!LO:LB:g=original	!	!	!	!	!	!	!	!	!
=7	=7	=7	=7	=7	=7	=7	=7	=7	=7	=7	=7
2A\	6	1r	.	.	2r	.	.	8.f\	ad-	4ff\	De-
.	.	.	.	.	.	.	.	16g\	-ju-	.	.
.	.	.	.	.	.	.	.	8a\	-va	4ff\	-us
.	.	.	.	.	.	.	.	8f\	nos	.	.
2B-\	.	.	.	.	8.B-\	ad	.	4b-\	De-	8.dd\	Sa-
.	.	.	.	.	16c\	ju-	.	.	.	16dd\	-lu-
!	!	!	!	!	!	!	!	!	!	!LO:LB:g=original	!
.	.	.	.	.	8.d\	-va	.	4b-\	-us	8.dd\	-ta-
.	.	.	.	.	16e-\	nos	.	.	.	16dd\	-ris
!	!	!	!	!	!LO:LB:g=original	!	!	!LO:LB:g=original	!	!	!
=8	=8	=8	=8	=8	=8	=8	=8	=8	=8	=8	=8
8.F\L	.	8.F\	ad-	.	4f\	De-	.	8.a\	Sa-	4cc\	nos-
16G\K	.	16G\	-ju-	.	.	.	.	16g\	-lu-	.	.
8.A\	.	8.A\	-va	.	4f\	-us	.	8.f\	-ta-	4cc\	-ter
16F\Jk	.	16F\	nos	.	.	.	.	16a\	-ris	.	.
4B-\	.	4B-\	De-	.	8.d\	Sa-	.	4b-\	no-	4dd\	De-
.	.	.	.	.	16e-\	-lu-	.	.	.	.	.
4F\	.	4F,<\	-us,	.	8.f\	-ta-	.	4a\	-ster	4cc\	-us
.	.	.	.	.	16e-\	-ris	.	.	.	.	.
=9	=9	=9	=9	=9	=9	=9	=9	=9	=9	=9	=9
8.G\L	5 x	8.G\	Sa-	.	4d\	nos-	.	8.g\	Sa-	8.b-\	Sa-
16F\K	.	16F\	-lu-	.	.	.	.	16b-\	-lu-	16b-\	-lu-
8.E-\	6 x	8.E-\	-ta-	.	4e-\	.	.	8.g\	-ta-	8.b-\	-ta-
16G\Jk	.	16G\	-ris	.	.	.	.	16e-\	-ris	16b-\	-ris
2F\	6 4	2F\	nos:-	.	4d\	.	.	2f\	nos:-	(>4b-\	nos-
.	5 3	.	.	.	4c\	.	.	.	.	4a\)	.
!LO:LB:g=original	!	!LO:LB:g=original	!	!	!	!	!	!LO:LB:g=original	!	!LO:LB:g=original	!
=10	=10	=10	=10	=10	=10	=10	=10	=10	=10	=10	=10
2BB-/	.	4BB-/	-ter	.	4d\	-ter	.	4f\	-ter	8b-\	-ter
.	.	.	.	.	.	.	.	.	.	8f/	et
.	.	4r	.	.	4r	.	.	8r	.	8b-\	pro-
.	.	.	.	.	.	.	.	8f\	et	8dd\	-pter
!	!	!	!	!	!LO:LB:g=original	!	!	!	!	!	!
2AA/	.	2r	.	.	8r	.	.	[>2f\	pro-	8.cc\	glo-
.	.	.	.	.	8F/	et	.	.	.	.	.
.	.	.	.	.	.	.	.	.	.	16cc\	-ri-
.	.	.	.	.	8c\	pro-	.	.	.	4cc\	-am
.	.	.	.	.	8e-\	-pter	.	.	.	.	.
=11	=11	=11	=11	=11	=11	=11	=11	=11	=11	=11	=11
2BB-/	.	8r	.	.	8.d\	Glo-	.	2f\]	.	4r	.
.	.	8B-\	et	.	.	.	.	.	.	.	.
.	.	.	.	.	16d\	-ri-	.	.	.	.	.
.	.	8B-\	pro-	.	4d\	-am	.	.	.	2b-\	pro-
.	.	8B-\	-pter	.	.	.	.	.	.	.	.
2F\	.	8.F\	Glo-	.	4c\	pro-	.	2f\	-pter	.	.
.	.	16F\	-ri-	.	.	.	.	.	.	.	.
.	.	8F\	-am	.	4c\	-pter	.	.	.	4a\	-pter
.	.	8F\	et	.	.	.	.	.	.	.	.
=12	=12	=12	=12	=12	=12	=12	=12	=12	=12	=12	=12
[>1BB-	.	2B-\	pro-	.	16d\LL	Glo-	.	[>1f	glo-	16b-\LL	glo-
.	.	.	.	.	16c\	.	.	.	.	16a\	.
.	.	.	.	.	16d\	.	.	.	.	16b-\	.
.	.	.	.	.	16e-\JJ	.	.	.	.	16cc\JJ	.
.	.	.	.	.	8f\L	.	.	.	.	8dd\L	.
.	.	.	.	.	8e-\J	.	.	.	.	8cc\J	.
!	!	!	!	!	!LO:LB:g=original	!	!	!	!	!LO:LB:g=original	!
.	.	2B-\	-pter	.	16d\LL	.	.	.	.	16b-\LL	.
.	.	.	.	.	16c\	.	.	.	.	16a\	.
.	.	.	.	.	16d\	.	.	.	.	16b-\	.
.	.	.	.	.	16e-\JJ	.	.	.	.	16cc\JJ	.
.	.	.	.	.	8f\L	.	.	.	.	8dd\L	.
.	.	.	.	.	8e-\J	.	.	.	.	8cc\J	.
!	!	!LO:LB:g=original	!	!	!	!	!	!	!	!	!
=13	=13	=13	=13	=13	=13	=13	=13	=13	=13	=13	=13
1BB-_>	.	16B-\LL	Glo-	.	8.d\	.	.	4.f\]	.	8.b-\	.
.	.	16A\	.	.	.	.	.	.	.	.	.
.	.	16B-\	.	.	.	.	.	.	.	.	.
.	.	16c\JJ	.	.	16d\	-ri-	.	.	.	16f/	-ri-
.	.	8d\L	.	.	4B-\	-am	.	.	.	4f/	-am
.	.	8c\J	.	.	.	.	.	8d\	.	.	.
.	.	16B-\LL	.	.	4r	.	.	16d\LL	.	4r	.
.	.	16A\	.	.	.	.	.	16c\	.	.	.
.	.	16B-\	.	.	.	.	.	16d\	.	.	.
.	.	16c\JJ	.	.	.	.	.	16e-\JJ	.	.	.
.	.	8d\L	.	.	8d\	pro-	.	8f\L	.	8b-\	pro-
.	.	8c\J	.	.	8e-\	-pter	.	8e-\J	.	8cc\	-pter
!	!	!	!	!	!	!	!	!LO:LB:g=original	!	!	!
=14	=14	=14	=14	=14	=14	=14	=14	=14	=14	=14	=14
2BB-/]	.	8.B-\	.	.	8.f\	Glo-	.	8.d\	-ri-	8.dd\	glo-
.	.	16BB-/	-ri-	.	16e-\	-ri-	.	16e-\	.	16cc\	-ri-
.	.	4BB-/	-am	.	4d\	-am	.	4f\	-am	4b-\	-am
!	!	!	!	!	!LO:LB:g=original	!	!	!	!	!LO:LB:g=original	!
2B-\	5	4B-\	No-	.	4d\	No-	.	4f\	No-	4b-\	No-
.	#6	8B-\	-mi-	.	8d\	-mi-	.	8d\	-mi-	8.g#X\	-mi-
.	.	8B-\	-nis	.	8d\	-nis	.	8d\	-nis	.	.
.	.	.	.	.	.	.	.	.	.	16g#\	-nis
!	!	!LO:LB:g=original	!	!	!	!	!	!	!	!	!
=15	=15	=15	=15	=15	=15	=15	=15	=15	=15	=15	=15
2A\	.	4A\	tu-	.	4c#X\	tu-	.	4en\	tu-	4a\	tu-
.	.	4A\	-i	.	4c#\	-i	.	4e\	-i	4a\	-i
4D\	.	4d\	Do-	.	4d\	Do-	.	4f\	Do-	4a\	Do-
4G\	.	8G\	-mi-	.	8d\	-mi-	.	8g\	-mi-	8b-\	-mi-
.	.	8B-\	-ne	.	8d\	-ne	.	8g\	-ne	8g\	-ne
!	!	!	!	!	!	!	!	!LO:LB:g=original	!	!	!
=16	=16	=16	=16	=16	=16	=16	=16	=16	=16	=16	=16
4A\	6 4	4A\	li-	.	4d\	li-	.	4f\	li-	4a\	li-
4AA/	#3 x	8AA/	-be-	.	8c#X\	-be-	.	8en\	-be-	8a\	-be-
.	.	8AA/	-ra	.	8c#\	-ra	.	8e\	-ra	8a\	-ra
!	!	!	!	!	!LO:LB:g=original	!	!	!	!	!	!
[>2D\	.	4D/	nos	.	4d\	nos	.	4d\	nos	4a\	nos
.	.	4r	.	.	4r	.	.	4r	.	[>4dd\	et
!	!	!	!	!	!	!	!	!	!	!LO:LB:g=original	!
=17	=17	=17	=17	=17	=17	=17	=17	=17	=17	=17	=17
2D\]	#6 x	0r	.	.	0r	.	.	4.f\	et	4dd\]	.
.	.	.	.	.	.	.	.	.	.	4dd\	pro-
.	.	.	.	.	.	.	.	8f\	prop-	.	.
2C\	# 3	.	.	.	.	.	.	4.f#X\	-pi-	4.ee-\	-pi-
.	.	.	.	.	.	.	.	8f#\	-ti-	8ee-\	-ti-
!LO:LB:g=original	!	!	!	!	!	!	!	!	!	!	!
=18	=18	=18	=18	=18	=18	=18	=18	=18	=18	=18	=18
4.BB-/	.	.	.	.	.	.	.	8g\	-us	4dd\	-us
.	.	.	.	.	.	.	.	8d\	pro-	.	.
!	!	!	!	!	!	!	!	!LO:LB:g=original	!	!	!
.	.	.	.	.	.	.	.	2g\	-pi-	8r	.
8B-\	.	.	.	.	.	.	.	.	.	8dd\	pro-
4A\	7 x	.	.	.	.	.	.	.	.	4cc\	-pi-
4D\	7 #3	.	.	.	.	.	.	8f#X\	-ti-	8a\	-ti-
.	.	.	.	.	.	.	.	8a\	-us	8cc\	-us
=19	=19	=19	=19	=19	=19	=19	=19	=19	=19	=19	=19
!LO:TX:t=P:problem=mixed beam	!	!	!	!	!	!	!	!	!	!	!
8G\L	.	1r	.	.	1r	.	.	4g\	es-	4b-\	es-
8GG/	.	.	.	.	.	.	.	.	.	.	.
8BB-/	.	.	.	.	.	.	.	4e-\	-to	4g\	-to
8D/J	.	.	.	.	.	.	.	.	.	.	.
2G\	.	.	.	.	.	.	.	4r	.	2r	.
.	.	.	.	.	.	.	.	[>4g\	et	.	.
!	!	!LO:LB:g=original	!	!	!	!	!	!	!	!	!
=20	=20	=20	=20	=20	=20	=20	=20	=20	=20	=20	=20
!	!	!	!	!	!	!	!	!	!	!LO:TX:a:Bi:t=2	!
2G\	.	4G\	et	.	4B-\	et	.	4g\]	.	0r	.
.	.	4G\	pro-	.	4B-\	pro-	.	4g\	pro-	.	.
2F\	n 6	4.F\	-pi-	.	4.Bn\	-pi-	.	4.a-X\	-pi-	.	.
.	4 3	8F\	-ti-	.	8B\	-ti-	.	8a-\	-ti-	.	.
!	!	!	!	!	!	!	!	!LO:PB:g=original	!	!	!
=21	=21	=21	=21	=21	=21	=21	=21	=21	=21	=21	=21
4.E-\	6	4E-\	-us	.	8c\	-us	.	4g\	-us	.	.
.	.	.	.	.	8G\	pro-	.	.	.	.	.
.	.	8r	.	.	2c\	-pi-	.	8r	.	.	.
8E-\	.	8E-\	pro-	.	.	.	.	8g\	pro-	.	.
4D\	7	4D\	-pi-	.	.	.	.	4f\	-pi-	.	.
4G\	n3	8G\	-ti-	.	8Bn\	-ti-	.	8d\	-ti-	.	.
.	.	8G\	-us	.	8d\	-us	.	8f\	-us	.	.
!	!	!	!	!	!LO:PB:g=original	!	!	!	!	!LO:PB:g=original	!
=22	=22	=22	=22	=22	=22	=22	=22	=22	=22	=22	=22
2.C/	.	4C/	es-	.	4c\	es-	.	4e-\	es-	8r	.
.	.	.	.	.	.	.	.	.	.	8g\	pec-
.	.	4C/	-to	.	4G/	-to	.	8c\	-to-	2cc\	-ca-
.	.	.	.	.	.	.	.	8c\	-pec-	.	.
.	.	2r	.	.	2r	.	.	4d\	-ca-	.	.
8G\L	4	.	.	.	.	.	.	[>4g\	.	4b-\	-tis
8E-\J	5	.	.	.	.	.	.	.	.	.	.
!	!	!LO:LB:g=original	!	!	!	!	!	!	!	!	!
=23	=23	=23	=23	=23	=23	=23	=23	=23	=23	=23	=23
!	!	!LO:TX:a:Bi:t=1	!	!	!	!	!	!	!	!	!
4C/	.	1r	.	.	0r	.	.	4g\]	.	2a-X\	nos-
4D/	.	.	.	.	.	.	.	4f\	-tis	.	.
2E-\	.	.	.	.	.	.	.	8.e-\L	no-	4g\	-tris
.	.	.	.	.	.	.	.	16f\Jk	.	.	.
.	.	.	.	.	.	.	.	4g\	-stris	[>4ee-\	et
!LO:LB:g=original	!	!	!	!	!	!	!	!LO:LB:g=original	!	!	!
=24	=24	=24	=24	=24	=24	=24	=24	=24	=24	=24	=24
4.BB-/	4	4.B-\	et	.	.	.	.	4.f\	et	8ee-\]	.
.	3	.	.	.	.	.	.	.	.	8dd\	pro-
.	.	.	.	.	.	.	.	.	.	2dd\	-pi-
8BBn/	5	8Bn\	pro-	.	.	.	.	8f\	pro-	.	.
4C/	9	4c\	-pi-	.	.	.	.	4e-\	-pi-	.	.
4AA-X/	-5	8A-X\	-ti-	.	.	.	.	8f\	-ti-	8cc\	-ti-
.	.	8A-\	-us	.	.	.	.	8e-\	-us	8cc\	-us
!	!	!	!	!	!	!	!	!	!	!LO:LB:g=original	!
=25	=25	=25	=25	=25	=25	=25	=25	=25	=25	=25	=25
2GG/	.	4G\	es-	.	4r	.	.	4d\	es-	4cc\	es-
.	.	8G\	-to	.	8r	.	.	8d\	-to	8bn\	-to
.	.	8G\	pec-	.	8d\	pec-	.	8g\	pec-	8b\	pec-
2GG/	.	4G\	-ca-	.	4d\	-ca-	.	4g\	-ca-	4b\	-ca-
.	.	4c\	-tis	.	4e-\	-tis	.	4g\	-tis	4cc\	-tis
!	!	!LO:PB:g=original	!	!	!	!	!	!	!	!	!
=26	=26	=26	=26	=26	=26	=26	=26	=26	=26	=26	=26
2GG/	n3	4G\	no-	.	4d\	nos-	.	4g\	nos-	4bn\	nos-
.	.	4G\	-stris	.	4d\	-tris	.	4g\	-tris	4b\	-tris
8c\L	.	(>8c\L	pro-	.	4e-\	pro-	.	4g\	pro-	4cc\	prop-
8B-\	.	8B-\J)	.	.	.	.	.	.	.	.	.
8A-X\	.	(>8A-X\L	-pter	.	4e-\	-pter	.	4a-X\	-pter	4cc\	-(ter)
8G\J	.	8G\J)	.	.	.	.	.	.	.	.	.
!	!	!	!	!	!	!	!	!LO:LB:g=original	!	!	!
=27	=27	=27	=27	=27	=27	=27	=27	=27	=27	=27	=27
4F\	.	4F\	No-	.	4f\	No-	.	4a-X\	No-	4cc\	No-
4F#X\	7	4F#X\	-men	.	4e-\	-men	.	4a-\	-men	4cc\	-men
.	3	.	.	.	.	.	.	.	.	.	.
!	!	!	!	!	!LO:LB:g=original	!	!	!	!	!	!
2G\	4	2G\	tu-	.	4e-\	tu-	.	2g\	tu-	4cc\	tu-
.	n3	.	.	.	4d\	.	.	.	.	4bn\	.
!	!	!	!	!	!	!	!	!	!	!LO:LB:g=original	!
=28	=28	=28	=28	=28	=28	=28	=28	=28	=28	=28	=28
2C/	.	4C/	-um.	.	4c\	-um,	.	4g\	-um	4cc\	-um
.	.	4r	.	.	2e-\	ad-	.	4r	.	4r	.
2F#X\	7	2r	.	.	.	.	.	2r	.	2r	.
.	6	.	.	.	8d\	-ju-	.	.	.	.	.
.	5	.	.	.	8c\	-va	.	.	.	.	.
=29	=29	=29	=29	=29	=29	=29	=29	=29	=29	=29	=29
!	!	!LO:TX:a:Bi:t=1	!	!	!	!	!	!	!	!	!
2G\	.	1r	.	.	4B-\	nos	.	4r	.	4r	.
.	.	.	.	.	4r	.	.	2b-\	li-	2dd\	li-
2C/	9 4	.	.	.	2r	.	.	.	.	.	.
.	8 6	.	.	.	.	.	.	8a\	-be-	8cc\	-be-
.	.	.	.	.	.	.	.	8g\	-ra	8b-\	-ra
!	!	!LO:LB:g=original	!	!	!	!	!	!	!	!	!
=30	=30	=30	=30	=30	=30	=30	=30	=30	=30	=30	=30
8.D\L	.	8.D\	ad	.	4d\	li-	.	4f#X\	nos	4a\	nos
16En\K	.	16En\	ju-	.	.	.	.	.	.	.	.
8.F#X\	.	8.F#X\	-va-	.	8d\	-be-	.	4r	.	4r	.
.	.	.	.	.	8c\	-ra	.	.	.	.	.
16D\Jk	.	16D\	-nos	.	.	.	.	.	.	.	.
!LO:LB:g=original	!	!	!	!	!	!	!	!	!	!	!
2G\	.	4G\	De-	.	4B-\	nos	.	2r	.	8.g\	ad
.	.	.	.	.	.	.	.	.	.	16a\	ju-
.	.	4G\	-us	.	4r	.	.	.	.	8.b-\	-va-
.	.	.	.	.	.	.	.	.	.	16cc\	-nos
!	!	!	!	!	!LO:LB:g=original	!	!	!	!	!	!
=31	=31	=31	=31	=31	=31	=31	=31	=31	=31	=31	=31
4F#X\	.	1r	.	.	2r	.	.	8.d\	li-	4dd\	De-
.	.	.	.	.	.	.	.	16e-\	-be-	.	.
4D\	#3	.	.	.	.	.	.	8.f#X\	-ra	4dd\	-s
!	!	!	!	!	!	!	!	!LO:LB:g=original	!	!	!
.	.	.	.	.	.	.	.	16d\	nos	.	.
!	!	!	!	!	!	!	!	!	!	!LO:LB:g=original	!
2G\	.	.	.	.	8.G\	ad-	.	4g\	De-	8.b-\	Sa-
.	.	.	.	.	16A\	-ju-	.	.	.	16cc\	-lu-
.	.	.	.	.	8.B-\	-va	.	4g\	-us	8.dd\	-ta-
.	.	.	.	.	16c\	nos	.	.	.	16ee-\	-ris
=32	=32	=32	=32	=32	=32	=32	=32	=32	=32	=32	=32
8.D\L	.	8.D\	li-	.	4d\	De-	.	8.f#X\	Sa-	4dd\	nos-
!	!	!LO:SIC:v:s=16En\	!	!	!	!	!	!	!	!	!
16En\K	.	16E-\	-be-	.	.	.	.	16g\	-lu-	.	.
8.F#X\	.	8.F#X\	-ra-	.	4d\	-us	.	8.a\	-ta-	4dd\	-ter
16D\Jk	.	16D\	-nos	.	.	.	.	16f#X\	-ris	.	.
4G\	.	4G\	De-	.	8.B-\	Sa-	.	4g\	nos-	2r	.
.	.	.	.	.	16c\	-lu-	.	.	.	.	.
4D\	#7	4D\	-us	.	8.d\	-ta-	.	4f#\	-ter	.	.
.	.	.	.	.	16c\	-ris	.	.	.	.	.
!	!	!LO:LB:g=original	!	!	!	!	!	!	!	!	!
=33	=33	=33	=33	=33	=33	=33	=33	=33	=33	=33	=33
2G\	.	8.G\	Sa-	.	8.B-\L	nos-	.	4r	.	2r	.
.	.	16A\	-lu-	.	16c\Jk	.	.	.	.	.	.
.	.	8.B-\	-ta-	.	4d\	-ter	.	8.g\	Sa-	.	.
.	.	16G\	-ris	.	.	.	.	16a\	-lu-	.	.
!	!	!	!	!	!LO:LB:g=original	!	!	!	!	!	!
2E-\	5	2E-\	no-	.	8.G/	Sa-	.	8.b-\	-ta-	8.g\	Sa-
.	6	.	.	.	16G/	-lu-	.	16a\	-ris	16a\	-lu-
.	.	.	.	.	8.G/	-ta-	.	[>4g\	nos-	8.b-\	-ta-
.	.	.	.	.	16G/	-ris	.	.	.	16cc\	-ris
!	!	!	!	!	!	!	!	!LO:LB:g=original	!	!	!
=34	=34	=34	=34	=34	=34	=34	=34	=34	=34	=34	=34
!	!	!	!	!	!	!	!	!LO:TX:a:t=P:problem=W źródle brak zakończenia ligaruty	!	!	!
2D\	4 x	2D,<\	-ster,	.	4A/	nos-	.	4g\]	.	4dd\	nos-
.	#3 x	.	.	.	4A/	-ter	.	4f#X\	-ter	4d/	-ter
2D\	8 6	4d\	et	.	4r	.	.	2r	.	2r	.
.	5 7	4c\	pro-	.	4r	.	.	.	.	.	.
!	!	!	!	!	!	!	!	!	!	!LO:LB:g=original	!
=35	=35	=35	=35	=35	=35	=35	=35	=35	=35	=35	=35
!	!	!	!	!	!	!	!LO:DY:a:t=%s.:rj	!	!	!	!
2D\	6 4	4B-\	-pi-	.	2d\	et	p	2r	.	4dd\	et
.	7 5	8A\	-ti-	.	.	.	.	.	.	4cc\	pro-
.	.	8A\	-us	.	.	.	.	.	.	.	.
2D\	6 4	4G\	es-	.	2d\	pro-	.	4dd\	et	4b-\	-pi-
.	7 5	8D\	-to	.	.	.	.	4cc\	pro-	8a\	-ti-
.	.	8D\	pro:-	.	.	.	.	.	.	8a\	-us
!	!	!LO:LB:g=original	!	!	!	!	!	!	!	!	!
=36	=36	=36	=36	=36	=36	=36	=36	=36	=36	=36	=36
!	!	!	!	!LO:DY:b:rj	!	!	!	!	!	!	!
2D\	6 4	4d\	-pi-	p	4.d\	-pi-	.	4b-\	-pi-	4g/	es-
.	x #3	8c\	-ti-	.	.	.	.	8a\	-ti-	8f#X/	-to
.	.	8c\	-us	.	8d\	-ti-	.	8a\	-us	8d/	pro-
2D\	6 4	4B-\	e-	.	2d\	-us	.	4g\	es-	4dd\	-pi-
.	x #3	8F#X\	-sto	.	.	.	.	8a\	-to	8cc\	-ti-
.	.	8F#\	pec-	.	.	.	.	8a\	pec-	8cc\	-us
!LO:LB:g=original	!	!	!	!	!LO:LB:g=original	!	!	!	!	!	!
=37	=37	=37	=37	=37	=37	=37	=37	=37	=37	=37	=37
4G\	.	4G\	-ca-	.	4d\	es-	.	4g\	-ca-	4b-\	es-
!	!	!LO:SIC:v:s=4F#,<\	!	!	!	!	!	!	!	!	!
4F#X\	.	4F,<\	-tis,	.	8d\	-to	.	4d\	-tis	8a\	-to
.	.	.	.	.	8d\	pec-	.	.	.	8a\	pec-
2G\	.	2G\	no-	.	8d\L	.	.	[>2g\	no-	4b-\	-ca-
.	.	.	.	.	8c\J	.	.	.	.	.	.
.	.	.	.	.	8B-\L	.	.	.	.	4b-\	-tis
.	.	.	.	.	8c\J	.	.	.	.	.	.
!	!	!	!	!	!	!	!	!	!	!LO:LB:g=original	!
=38	=38	=38	=38	=38	=38	=38	=38	=38	=38	=38	=38
2D\	4	2D,<\	-stris,	.	4d\	no-	.	4g\]	.	4a\	nos-
.	#3	.	.	.	4d\	-stris	.	4f#X\	-stris	4a\	-tris
!	!	!	!	!	!	!	!	!LO:LB:g=original	!	!	!
!	!	!	!	!LO:DY:a:rj	!	!	!	!	!	!	!
4G\	.	4G\	pro-	f	4d\	pro-	.	4g\	pro-	4b-\	prop-
4E-\	6	4E-\	-pter	.	4G/	-p(ter)	.	4g\	-pter	4cc\	-(ter)
!	!	!LO:LB:g=original	!	!	!	!	!	!	!	!	!
=39	=39	=39	=39	=39	=39	=39	=39	=39	=39	=39	=39
4D\	#3	4D\	No-	.	4A\	no-	.	4f#X\	No-	4cc\	No-
4G\	.	4G\	-men	.	8B-\L	-men	.	2g\	-men	4b-\	-men
.	.	.	.	.	8c\J	.	.	.	.	.	.
2D\	4	2D\	tu-	.	2d\	tu-	.	.	.	2a\	tu-
.	#3	.	.	.	.	.	.	4f#X\	tu-	.	.
!	!	!	!	!	!LO:LB:g=original	!	!	!	!	!	!
=40	=40	=40	=40	=40	=40	=40	=40	=40	=40	=40	=40
8GG/L	.	4GG/	-um	.	4d\	-um	.	4g\	-um	4g\	-um
8BB-/	.	.	.	.	.	.	.	.	.	.	.
8D/	.	8r	.	.	8r	.	.	8r	.	8r	.
8G/J	.	8G\	pro-	.	8d\	pro-	.	8g\	pro-	8dd\	pro-
2F\	4 6	4F\	-pi-	.	4d\	-pi-	.	4a-X\	-pi-	4bn\	-pi-
.	4 3	8F\	-ti-	.	8d\	-ti-	.	8a-\	-ti-	8b\	-ti-
.	.	8F\	-us	.	8d\	-us	.	8a-\	-us	8b\	-us
=41	=41	=41	=41	=41	=41	=41	=41	=41	=41	=41	=41
2E-\	6	4E-\	es-	.	4c\	es-	.	4g\	es-	4cc\	es-
.	.	8E-\	-to	.	8c\	-to	.	8g\	-to	8cc\	-to
.	.	8E-\	pec-	.	8c\	pec-	.	8g\	pec-	8cc\	pec-
2E-\	#6	4E-\	-ca-	.	4G/	-ca-	.	4g\	-ca-	4cc#X\	-ca-
.	.	4E-\	-tis	.	4G/	-tis	.	4g\	-tis	4cc#\	-tis
!	!	!LO:LB:g=original	!	!	!	!	!	!LO:LB:g=original	!	!LO:LB:g=original	!
=42	=42	=42	=42	=42	=42	=42	=42	=42	=42	=42	=42
2D\	5 4	4D\	nos-	.	4A/	nos-	.	4g\	nos-	4dd\	nos-
.	x #3	4D\	-tris	.	4A/	-tris	.	4f#X\	-tris	4dd\	-tris
!	!	!	!	!	!LO:LB:g=original	!	!	!	!	!	!
2D\	6 4	2D\	pro-	.	4G/	pro-	.	4b-\	prop-	2r	.
.	5 #3	.	.	.	4F#X/	-pter	.	4a\	-(ter)	.	.
=43	=43	=43	=43	=43	=43	=43	=43	=43	=43	=43	=43
2D\	.	2D\	-pter	.	4B-/	No-	.	4g\	no-	2r	.
.	.	.	.	.	4A/	-men	.	4f#X\	-stris	.	.
2D\	.	2D\	N(o)-	.	4G/	tu-	.	4b-\	(pro)-	4g/	prop-
.	.	.	.	.	4D/	-um	.	4a\	-(pter)	4f#X/	-(ter)
!LO:LB:g=original	!	!	!	!	!	!	!	!	!	!	!
=44	=44	=44	=44	=44	=44	=44	=44	=44	=44	=44	=44
2D\	.	2D\	-m(en)	.	4d\	pro-	.	4g\	no-	4b-\	No-
.	.	.	.	.	4c\	-p(ter)	.	4f#X\	-men	4a\	-men
*	*	*	*	*	*	*	*	*	*ij	*	*
4G\	.	4G\	pro-	.	4B-\	no-	.	4g\	no-	4b-\	prop-
4C#X/	6	4C#X/	-p(ter)	.	4A\	-men	.	4en\	-men	4g\	-(ter)
.	7	.	.	.	.	.	.	.	.	.	.
*	*	*	*	*	*	*	*	*	*Xij	*	*
=45	=45	=45	=45	=45	=45	=45	=45	=45	=45	=45	=45
4D\	#3	4D/	No-	.	4A\	No-	.	1d	tu-	4f#X/	No-
4G\	4	4G\	-men	.	4B-\	-men	.	.	.	2g/	-men
.	#3	.	.	.	.	.	.	.	.	.	.
2D\	.	2D\	tu-	.	2A\	tu-	.	.	.	.	.
.	.	.	.	.	.	.	.	.	.	4f#/	tu-
!	!	!	!	!	!LO:LB:g=original	!	!	!	!	!	!
=46	=46	=46	=46	=46	=46	=46	=46	=46	=46	=46	=46
!LO:TX:a:t=P:problem=W źródle ozdobna kreska końcowa	!	!LO:TX:a:t=P:problem=W źródle ozdobna kreska końcowa	!	!	!	!	!	!	!	!	!
1GG;>	.	1GG	-um.	.	1G;>	-um.	.	1d;>	-um	1g	-um.
==	==	==	==	==	==	==	==	==	==	==	==
*-	*-	*-	*-	*-	*-	*-	*-	*-	*-	*-	*-
!!title: @{OTL};
!!!RDF**kern: > = above
!!!RDF**kern: < = below
!!!RDF**kern: i = editorial accidental
!!!EED: Wojciech Jakubiak-Danek
!!!EST: 2021-04-09
!!!URL-scan: http://repozytorium.nifc.pl/skany/pl-kk-nut--i-321
!!!ONB-nifc:
!!!AIN: 1 alto 1 empty 1 organ 1 tenor 1 vox
!!!ENC: Anastazja Marusiak
!!!END: 2021-03-15
